production/_assets/svg/systemnote-status-icons/systemnote-mentioned-issue.svg

<svg xmlns="http://www.w3.org/2000/svg" width="16" height="16" viewBox="0 0 16 16">
  <path fill="#000000" fill-rule="evenodd" d="M9.75997478,10.3531833 L6.28296474,10.3531833 L5.7774114,13.2203187 C5.70542127,13.628595 5.31922061,13.9017611 4.90845593,13.8293322 C4.5005352,13.7574048 4.22775712,13.3706891 4.30019977,12.9598465 L4.75982482,10.3531833 L2.75065374,10.3531833 C2.33607913,10.3531833 2,10.0202846 2,9.60318325 C2,9.18896969 2.33347315,8.85318325 2.75065374,8.85318325 L5.02431529,8.85318325 L5.46513275,6.35318325 L3.75065374,6.35318325 C3.33607913,6.35318325 3,6.02028463 3,5.60318325 C3,5.18896969 3.33347315,4.85318325 3.75065374,4.85318325 L5.72962322,4.85318325 L6.12327859,2.62065267 C6.19526872,2.21237638 6.58146939,1.93921029 6.99223406,2.01163918 C7.40015479,2.08356661 7.67293287,2.47028225 7.60049022,2.88112494 L7.25276314,4.85318325 L10.7297732,4.85318325 L11.1234286,2.62065267 C11.1954187,2.21237638 11.5816193,1.93921029 11.992384,2.01163918 C12.4003048,2.08356661 12.6730828,2.47028225 12.6006402,2.88112494 L12.2529131,4.85318325 L14.2493463,4.85318325 C14.6639209,4.85318325 15,5.18608187 15,5.60318325 C15,6.01739681 14.6665269,6.35318325 14.2493463,6.35318325 L11.9884226,6.35318325 L11.5476052,8.85318325 L13.2493463,8.85318325 C13.6639209,8.85318325 14,9.18608187 14,9.60318325 C14,10.0173968 13.6665269,10.3531833 13.2493463,10.3531833 L11.2831147,10.3531833 L10.7775614,13.2203187 C10.7055712,13.628595 10.3193706,13.9017611 9.90860589,13.8293322 C9.50068516,13.7574048 9.22790708,13.3706891 9.30034973,12.9598465 L9.75997478,10.3531833 Z M10.0244653,8.85318325 L10.4652827,6.35318325 L6.98827266,6.35318325 L6.54745521,8.85318325 L10.0244653,8.85318325 Z"/>
</svg>

<svg xmlns="http://www.w3.org/2000/svg" viewBox="0 0 16 16"><path fill-rule="evenodd" d="m9.76 10.353h-3.477l-.506 2.867c-.072.408-.458.681-.869.609-.408-.072-.681-.459-.608-.869l.46-2.607h-2.01c-.415 0-.751-.333-.751-.75 0-.414.333-.75.751-.75h2.274l.441-2.5h-1.714c-.415 0-.751-.333-.751-.75 0-.414.333-.75.751-.75h1.979l.394-2.233c.072-.408.458-.681.869-.609.408.072.681.459.608.869l-.348 1.972h3.477l.394-2.233c.072-.408.458-.681.869-.609.408.072.681.459.608.869l-.348 1.972h1.996c.415 0 .751.333.751.75 0 .414-.333.75-.751.75h-2.261l-.441 2.5h1.702c.415 0 .751.333.751.75 0 .414-.333.75-.751.75h-1.966l-.506 2.867c-.072.408-.458.681-.869.609-.408-.072-.681-.459-.608-.869l.46-2.607m.264-1.5l.441-2.5h-3.477l-.441 2.5h3.477"/></svg>
